X:21153 
T:OLD BOG GROUND (reel), The
B:DMI.0771
Z:Nordberg/Black
R:reel % A-B-A
%Q:1/4=180
M:C|
L:1/8
K:G
B/A/|:G2EG DGBG|DGBG AGEG|G2EG DGBc|dBAc BGG2:|
Bdd2 ecc2|dBGB AGED|Bdd2 efge|dBAc BGG2|
Bdd2 ecc2|dBGB AGED|Bdef gage|dBAc BGAF|]
"repeat A part"

%%%

